packages/core/src/svgs/tomi.svg

<svg width="24" height="24" viewBox="0 0 24 24" fill="none" xmlns="http://www.w3.org/2000/svg">
<g clip-path="url(#clip0_31_19864)">
<path d="M0 0H24V24H0V0Z" fill="url(#paint0_linear_31_19864)"/>
<path d="M10.7829 5.23304C8.23721 5.70447 6.1115 7.69304 5.32721 10.3502C5.16864 10.9727 5.10649 11.6159 5.14293 12.2573C5.16007 13.7059 5.46435 14.8759 6.1115 15.9302L6.49721 16.5688L10.7144 13.9288V19.2859H13.2858V14.0016L17.5458 16.3973C17.5458 16.3973 18.6172 14.5973 18.5315 14.5245C18.5101 14.503 17.0272 13.5859 15.2401 12.493L12.0001 10.4959L9.81007 11.8545C9.05712 12.3452 8.28046 12.7986 7.48293 13.213C7.38007 13.213 7.35864 12.943 7.39293 12.1159C7.42721 11.173 7.48293 10.9159 7.78293 10.2602C8.09345 9.53221 8.58709 8.897 9.21584 8.41633C9.84459 7.93566 10.587 7.6259 11.371 7.51718C12.1549 7.40845 12.9536 7.50447 13.6894 7.79589C14.4253 8.0873 15.0732 8.56419 15.5701 9.18018C16.0726 9.83686 16.4159 10.6012 16.5729 11.413C16.6372 11.743 16.7015 12.0259 16.7144 12.0345L17.7815 12.6902L18.8186 13.3245L18.8529 12.3988C18.9001 11.1302 18.7244 10.2988 18.1629 9.10732C17.6759 7.98791 16.8732 7.03474 15.8529 6.36447C14.3641 5.36985 12.5578 4.9664 10.7872 5.23304H10.7829Z" fill="#FF0083"/>
</g>
<defs>
<linearGradient id="paint0_linear_31_19864" x1="4.46571" y1="4.16143" x2="29.2071" y2="32.58" gradientUnits="userSpaceOnUse">
<stop stop-color="#1A1E21"/>
<stop offset="1" stop-color="#06060A"/>
</linearGradient>
<clipPath id="clip0_31_19864">
<rect width="24" height="24" fill="white"/>
</clipPath>
</defs>
</svg>

<svg xmlns="http://www.w3.org/2000/svg" width="24" height="24" fill="none" viewBox="0 0 24 24"><g clip-path="url(#a)"><path fill="url(#b)" d="M0 0h24v24H0z"/><path fill="#FF0083" d="M10.783 5.233c-2.546.471-4.671 2.46-5.456 5.117a6.3 6.3 0 0 0-.184 1.907c.017 1.449.321 2.619.969 3.673l.385.639 4.217-2.64v5.357h2.572v-5.284l4.26 2.395s1.071-1.8.986-1.872c-.022-.022-1.505-.94-3.292-2.032L12 10.496l-2.19 1.358q-1.13.737-2.327 1.359c-.103 0-.124-.27-.09-1.097.034-.943.09-1.2.39-1.856a4.586 4.586 0 0 1 7.787-1.08 5.34 5.34 0 0 1 1.003 2.233c.064.33.128.613.141.621l1.068.656 1.037.635.034-.926c.047-1.269-.129-2.1-.69-3.292a6.3 6.3 0 0 0-2.31-2.743 7.2 7.2 0 0 0-5.066-1.131z"/></g><defs><linearGradient id="b" x1="4.466" x2="29.207" y1="4.161" y2="32.58" gradientUnits="userSpaceOnUse"><stop stop-color="#1A1E21"/><stop offset="1" stop-color="#06060A"/></linearGradient><clipPath id="a"><path fill="#fff" d="M0 0h24v24H0z"/></clipPath></defs></svg>
